world_stage/static/flags/rect/tto.svg

<svg height="640" viewBox="0 0 960 640" width="960" xmlns="http://www.w3.org/2000/svg"><path d="m0 0h720v480h-720z" fill="#ce1126" transform="matrix(1.3333333 0 0 -1.3333333 0 640)"/><path d="m0 0 499.794-480h220.206l-499.793 480z" fill="#fff" transform="matrix(1.3333333 0 0 -1.3333333 0 .0004)"/><path d="m0 0 499.794-480h146.804l-499.794 480z" transform="matrix(1.3333333 0 0 -1.3333333 48.9348 .0004)"/></svg>

<?xml version="1.0" encoding="UTF-8" standalone="no"?>
<!-- Created with Inkscape (http://www.inkscape.org/) -->

<svg
   version="1.1"
   id="svg1"
   width="960"
   height="640"
   viewBox="0 0 960 640"
   sodipodi:docname="tt.ai"
   xmlns:inkscape="http://www.inkscape.org/namespaces/inkscape"
   xmlns:sodipodi="http://sodipodi.sourceforge.net/DTD/sodipodi-0.dtd"
   xmlns="http://www.w3.org/2000/svg"
   xmlns:svg="http://www.w3.org/2000/svg">
  <defs
     id="defs1" />
  <sodipodi:namedview
     id="namedview1"
     pagecolor="#ffffff"
     bordercolor="#000000"
     borderopacity="0.25"
     inkscape:showpageshadow="2"
     inkscape:pageopacity="0.0"
     inkscape:pagecheckerboard="0"
     inkscape:deskcolor="#d1d1d1">
    <inkscape:page
       x="0"
       y="0"
       inkscape:label="1"
       id="page1"
       width="960"
       height="640"
       margin="0"
       bleed="0" />
  </sodipodi:namedview>
  <g
     id="layer-MC0"
     inkscape:groupmode="layer"
     inkscape:label="Layer 1">
    <path
       id="path1"
       d="M 0,0 H 720 V 480 H 0 Z"
       style="fill:#ce1126;fill-opacity:1;fill-rule:nonzero;stroke:none"
       transform="matrix(1.3333333,0,0,-1.3333333,0,640)" />
    <path
       id="path2"
       d="M 0,0 499.794,-480 H 720 L 220.207,0 Z"
       style="fill:#ffffff;fill-opacity:1;fill-rule:nonzero;stroke:none"
       transform="matrix(1.3333333,0,0,-1.3333333,0,4e-4)" />
    <path
       id="path3"
       d="M 0,0 499.794,-480 H 646.598 L 146.804,0 Z"
       style="fill:#000000;fill-opacity:1;fill-rule:nonzero;stroke:none"
       transform="matrix(1.3333333,0,0,-1.3333333,48.9348,4e-4)" />
  </g>
</svg>
